;FLAVOR:Marlin
;TIME:13345
;Filament used: 12.9193m
;Layer height: 0.2
;MINX:58.9
;MINY:58.9
;MINZ:0.2
;MAXX:176.1
;MAXY:176.1
;MAXZ:100
;Generated with Cura_SteamEngine 4.7.1
M140 S60
M105
M190 S60
M104 S210
M105
M109 S210
M82 ;absolute extrusion mode
; Ender 3 Custom Start G-code
G92 E0 ; Reset Extruder
G28 ; Home all axes
G1 Z2.0 F3000 ; Move Z Axis up little to prevent scratching of Heat Bed
G1 X0.1 Y20 Z0.3 F5000.0 ; Move to start position
G92 E0 ; Reset Extruder
G1 Z2.0 F3000 ; Move Z Axis up little to prevent scratching of Heat Bed
G1 X5 Y20 Z0.3 F5000.0 ; Move over to prevent blob squish
G92 E0
G92 E0
G1 F1500 E-6.5
;LAYER_COUNT:500
;LAYER:0
M107
G0 F6000 X61.427 Y61.429 Z0.2
G0 F6000 X61.427 Y61.429 Z0.2
G0 F6000 X61.427 Y61.429 Z0.2
G0 F6000 X61.427 Y61.429 Z0.2
G0 F6000 X61.427 Y61.429 Z0.2
G0 F6000 X61.427 Y61.429 Z0.2
G0 F6000 X61.427 Y61.429 Z0.2
G0 F6000 X61.427 Y61.429 Z0.2
G0 F6000 X61.427 Y61.429 Z0.2
G0 F6000 X61.427 Y61.429 Z0.2
G0 F6000 X61.427 Y61.429 Z0.2
G0 F6000 X61.427 Y61.429 Z0.2
G0 F6000 X61.427 Y61.429 Z0.2
G0 F6000 X61.427 Y61.429 Z0.2
G0 F6000 X61.427 Y61.429 Z0.2
G0 F6000 X61.427 Y61.429 Z0.2
G0 F6000 X61.427 Y61.429 Z0.2
G0 F6000 X61.427 Y61.429 Z0.2
G0 F6000 X61.427 Y61.429 Z0.2
G0 F6000 X61.427 Y61.429 Z0.2
G0 F6000 X61.427 Y61.429 Z0.2
G0 F6000 X61.427 Y61.429 Z0.2
G0 F6000 X61.427 Y61.429 Z0.2
G0 F6000 X61.427 Y61.429 Z0.2
G0 F6000 X61.427 Y61.429 Z0.2
G0 F6000 X61.427 Y61.429 Z0.2
G0 F6000 X61.427 Y61.429 Z0.2
G0 F6000 X61.427 Y61.429 Z0.2
G0 F6000 X61.427 Y61.429 Z0.2
G0 F6000 X61.427 Y61.429 Z0.2
G0 F6000 X61.427 Y61.429 Z0.2
G0 F6000 X61.427 Y61.429 Z0.2
G0 F6000 X61.427 Y61.429 Z0.2
G0 F6000 X61.427 Y61.429 Z0.2
G0 F6000 X61.427 Y61.429 Z0.2
G0 F6000 X61.427 Y61.429 Z0.2
G0 F6000 X61.427 Y61.429 Z0.2
G0 F6000 X61.427 Y61.429 Z0.2
G0 F6000 X61.427 Y61.429 Z0.2
G0 F6000 X61.427 Y61.429 Z0.2
G0 F6000 X61.427 Y61.429 Z0.2
G0 F6000 X61.427 Y61.429 Z0.2
G0 F6000 X61.427 Y61.429 Z0.2
G0 F6000 X61.427 Y61.429 Z0.2
G0 F6000 X61.427 Y61.429 Z0.2
G0 F6000 X61.427 Y61.429 Z0.2
G0 F6000 X61.427 Y61.429 Z0.2
G0 F6000 X61.427 Y61.429 Z0.2
G0 F6000 X61.427 Y61.429 Z0.2
G0 F6000 X61.427 Y61.429 Z0.2
G0 F6000 X61.427 Y61.429 Z0.2
G0 F6000 X61.427 Y61.429 Z0.2
G0 F6000 X61.427 Y61.429 Z0.2
G0 F6000 X61.427 Y61.429 Z0.2
G0 F6000 X61.427 Y61.429 Z0.2
G0 F6000 X61.427 Y61.429 Z0.2
G0 F6000 X61.427 Y61.429 Z0.2
G0 F6000 X61.427 Y61.429 Z0.2
G0 F6000 X61.427 Y61.429 Z0.2
G0 F6000 X61.427 Y61.429 Z0.2
G0 F6000 X61.427 Y61.429 Z0.2
G0 F6000 X61.427 Y61.429 Z0.2
G0 F6000 X61.427 Y61.429 Z0.2
G0 F6000 X61.427 Y61.429 Z0.2
G0 F6000 X61.427 Y61.429 Z0.2
G0 F6000 X61.427 Y61.429 Z0.2
G0 F6000 X61.427 Y61.429 Z0.2
G0 F6000 X61.427 Y61.429 Z0.2
G0 F6000 X61.427 Y61.429 Z0.2
G0 F6000 X61.427 Y61.429 Z0.2
G0 F6000 X61.427 Y61.429 Z0.2
G0 F6000 X61.427 Y61.429 Z0.2
G0 F6000 X61.427 Y61.429 Z0.2
G0 F6000 X61.427 Y61.429 Z0.2
G0 F6000 X61.427 Y61.429 Z0.2
G0 F6000 X61.427 Y61.429 Z0.2
G0 F6000 X61.427 Y61.429 Z0.2
G0 F6000 X61.427 Y61.429 Z0.2
G0 F6000 X61.427 Y61.429 Z0.2
G0 F6000 X61.427 Y61.429 Z0.2
G0 F6000 X61.427 Y61.429 Z0.2
G0 F6000 X61.427 Y61.429 Z0.2
G0 F6000 X61.427 Y61.429 Z0.2
G0 F6000 X61.427 Y61.429 Z0.2
G0 F6000 X61.427 Y61.429 Z0.2
G0 F6000 X61.427 Y61.429 Z0.2
G0 F6000 X61.427 Y61.429 Z0.2
G0 F6000 X61.427 Y61.429 Z0.2
G0 F6000 X61.427 Y61.429 Z0.2
G0 F6000 X61.427 Y61.429 Z0.2
G0 F6000 X61.427 Y61.429 Z0.2
G0 F6000 X61.427 Y61.429 Z0.2
G0 F6000 X61.427 Y61.429 Z0.2
G0 F6000 X61.427 Y61.429 Z0.2
G0 F6000 X61.427 Y61.429 Z0.2
G0 F6000 X61.427 Y61.429 Z0.2
G0 F6000 X61.427 Y61.429 Z0.2
G0 F6000 X61.427 Y61.429 Z0.2
G0 F6000 X61.427 Y61.429 Z0.2
G0 F6000 X61.427 Y61.429 Z0.2
G0 F6000 X61.427 Y61.429 Z0.2
G0 F6000 X61.427 Y61.429 Z0.2
G0 F6000 X61.427 Y61.429 Z0.2
G0 F6000 X61.427 Y61.429 Z0.2
G0 F6000 X61.427 Y61.429 Z0.2
G0 F6000 X61.427 Y61.429 Z0.2
G0 F6000 X61.427 Y61.429 Z0.2
G0 F6000 X61.427 Y61.429 Z0.2
G0 F6000 X61.427 Y61.429 Z0.2
G0 F6000 X61.427 Y61.429 Z0.2
G0 F6000 X61.427 Y61.429 Z0.2
G0 F6000 X61.427 Y61.429 Z0.2
G0 F6000 X61.427 Y61.429 Z0.2
G0 F6000 X61.427 Y61.429 Z0.2
G0 F6000 X61.427 Y61.429 Z0.2
G0 F6000 X61.427 Y61.429 Z0.2
G0 F6000 X61.427 Y61.429 Z0.2
G0 F6000 X61.427 Y61.429 Z0.2
G0 F6000 X61.427 Y61.429 Z0.2
G0 F6000 X61.427 Y61.429 Z0.2
G0 F6000 X61.427 Y61.429 Z0.2
G0 F6000 X61.427 Y61.429 Z0.2
G0 F6000 X61.427 Y61.429 Z0.2
G0 F6000 X61.427 Y61.429 Z0.2
G0 F6000 X61.427 Y61.429 Z0.2
G0 F6000 X61.427 Y61.429 Z0.2
G0 F6000 X61.427 Y61.429 Z0.2
G0 F6000 X61.427 Y61.429 Z0.2
G0 F6000 X61.427 Y61.429 Z0.2
G0 F6000 X61.427 Y61.429 Z0.2
G0 F6000 X61.427 Y61.429 Z0.2
G0 F6000 X61.427 Y61.429 Z0.2
G0 F6000 X61.427 Y61.429 Z0.2
G0 F6000 X61.427 Y61.429 Z0.2
G0 F6000 X61.427 Y61.429 Z0.2
G0 F6000 X61.427 Y61.429 Z0.2
G0 F6000 X61.427 Y61.429 Z0.2
G0 F6000 X61.427 Y61.429 Z0.2
G0 F6000 X61.427 Y61.429 Z0.2
G0 F6000 X61.427 Y61.429 Z0.2
G0 F6000 X61.427 Y61.429 Z0.2
G0 F6000 X61.427 Y61.429 Z0.2
G0 F6000 X61.427 Y61.429 Z0.2
G0 F6000 X61.427 Y61.429 Z0.2
G0 F6000 X61.427 Y61.429 Z0.2
G0 F6000 X61.427 Y61.429 Z0.2
G0 F6000 X61.427 Y61.429 Z0.2
G0 F6000 X61.427 Y61.429 Z0.2
G0 F6000 X61.427 Y61.429 Z0.2
G0 F6000 X61.427 Y61.429 Z0.2
G0 F6000 X61.427 Y61.429 Z0.2
G0 F6000 X61.427 Y61.429 Z0.2
G0 F6000 X61.427 Y61.429 Z0.2
G0 F6000 X61.427 Y61.429 Z0.2
G0 F6000 X61.427 Y61.429 Z0.2
G0 F6000 X61.427 Y61.429 Z0.2
G0 F6000 X61.427 Y61.429 Z0.2
G0 F6000 X61.427 Y61.429 Z0.2
G0 F6000 X61.427 Y61.429 Z0.2
G0 F6000 X61.427 Y61.429 Z0.2
G0 F6000 X61.427 Y61.429 Z0.2
G0 F6000 X61.427 Y61.429 Z0.2
G0 F6000 X61.427 Y61.429 Z0.2
G0 F6000 X61.427 Y61.429 Z0.2
G0 F6000 X61.427 Y61.429 Z0.2
G0 F6000 X61.427 Y61.429 Z0.2
G0 F6000 X61.427 Y61.429 Z0.2
G0 F6000 X61.427 Y61.429 Z0.2
G0 F6000 X61.427 Y61.429 Z0.2
G0 F6000 X61.427 Y61.429 Z0.2
G0 F6000 X61.427 Y61.429 Z0.2
G0 F6000 X61.427 Y61.429 Z0.2
G0 F6000 X61.427 Y61.429 Z0.2
G0 F6000 X61.427 Y61.429 Z0.2
G0 F6000 X61.427 Y61.429 Z0.2
G0 F6000 X61.427 Y61.429 Z0.2
G0 F6000 X61.427 Y61.429 Z0.2
G0 F6000 X61.427 Y61.429 Z0.2
G0 F6000 X61.427 Y61.429 Z0.2
G0 F6000 X61.427 Y61.429 Z0.2
G0 F6000 X61.427 Y61.429 Z0.2
G0 F6000 X61.427 Y61.429 Z0.2
G0 F6000 X61.427 Y61.429 Z0.2
G0 F6000 X61.427 Y61.429 Z0.2
G0 F6000 X61.427 Y61.429 Z0.2
G0 F6000 X61.427 Y61.429 Z0.2
G0 F6000 X61.427 Y61.429 Z0.2
G0 F6000 X61.427 Y61.429 Z0.2
G0 F6000 X61.427 Y61.429 Z0.2
G0 F6000 X61.427 Y61.429 Z0.2
G0 F6000 X61.427 Y61.429 Z0.2
G0 F6000 X61.427 Y61.429 Z0.2
G0 F6000 X61.427 Y61.429 Z0.2
G0 F6000 X61.427 Y61.429 Z0.2
G0 F6000 X61.427 Y61.429 Z0.2
G0 F6000 X61.427 Y61.429 Z0.2
G0 F6000 X61.427 Y61.429 Z0.2
G0 F6000 X61.427 Y61.429 Z0.2
G0 F6000 X61.427 Y61.429 Z0.2
G0 F6000 X61.427 Y61.429 Z0.2
G0 F6000 X61.427 Y61.429 Z0.2
G0 F6000 X61.427 Y61.429 Z0.2
G0 F6000 X61.427 Y61.429 Z0.2
G0 F6000 X61.427 Y61.429 Z0.2
G0 F6000 X61.427 Y61.429 Z0.2
G0 F6000 X61.427 Y61.429 Z0.2
G0 F6000 X61.427 Y61.429 Z0.2
G0 F6000 X61.427 Y61.429 Z0.2
G0 F6000 X61.427 Y61.429 Z0.2
G0 F6000 X61.427 Y61.429 Z0.2
G0 F6000 X61.427 Y61.429 Z0.2
G0 F6000 X61.427 Y61.429 Z0.2
G0 F6000 X61.427 Y61.429 Z0.2
G0 F6000 X61.427 Y61.429 Z0.2
G0 F6000 X61.427 Y61.429 Z0.2
G0 F6000 X61.427 Y61.429 Z0.2
G0 F6000 X61.427 Y61.429 Z0.2
G0 F6000 X61.427 Y61.429 Z0.2
G0 F6000 X61.427 Y61.429 Z0.2
G0 F6000 X61.427 Y61.429 Z0.2
G0 F6000 X61.427 Y61.429 Z0.2
G0 F6000 X61.427 Y61.429 Z0.2
G0 F6000 X61.427 Y61.429 Z0.2
G0 F6000 X61.427 Y61.429 Z0.2
G0 F6000 X61.427 Y61.429 Z0.2
G0 F6000 X61.427 Y61.429 Z0.2
G0 F6000 X61.427 Y61.429 Z0.2
G0 F6000 X61.427 Y61.429 Z0.2
G0 F6000 X61.427 Y61.429 Z0.2
G0 F6000 X61.427 Y61.429 Z0.2
G0 F6000 X61.427 Y61.429 Z0.2
G0 F6000 X61.427 Y61.429 Z0.2
G0 F6000 X61.427 Y61.429 Z0.2
G0 F6000 X61.427 Y61.429 Z0.2
G0 F6000 X61.427 Y61.429 Z0.2
G0 F6000 X61.427 Y61.429 Z0.2
G0 F6000 X61.427 Y61.429 Z0.2
G0 F6000 X61.427 Y61.429 Z0.2
G0 F6000 X61.427 Y61.429 Z0.2
G0 F6000 X61.427 Y61.429 Z0.2
G0 F6000 X61.427 Y61.429 Z0.2
G0 F6000 X61.427 Y61.429 Z0.2
G0 F6000 X61.427 Y61.429 Z0.2
G0 F6000 X61.427 Y61.429 Z0.2
G0 F6000 X61.427 Y61.429 Z0.2
G0 F6000 X61.427 Y61.429 Z0.2
G0 F6000 X61.427 Y61.429 Z0.2
G0 F6000 X61.427 Y61.429 Z0.2
G0 F6000 X61.427 Y61.429 Z0.2
G0 F6000 X61.427 Y61.429 Z0.2
G0 F6000 X61.427 Y61.429 Z0.2
G0 F6000 X61.427 Y61.429 Z0.2
G0 F6000 X61.427 Y61.429 Z0.2
G0 F6000 X61.427 Y61.429 Z0.2
G0 F6000 X61.427 Y61.429 Z0.2
G0 F6000 X61.427 Y61.429 Z0.2
G0 F6000 X61.427 Y61.429 Z0.2
G0 F6000 X61.427 Y61.429 Z0.2
G0 F6000 X61.427 Y61.429 Z0.2
G0 F6000 X61.427 Y61.429 Z0.2
G0 F6000 X61.427 Y61.429 Z0.2
;TYPE:SKIRT
G1 F1500 E0
G1 F1200 X62.04 Y60.872 E0.02755
;TIME_ELAPSED:13345.832453
G1 F1500 E435.92291
M140 S0
M107
G91 ;Relative positioning
G1 E-2 F2700 ;Retract a bit
G1 E-2 Z0.2 F2400 ;Retract and raise Z
G1 X5 Y5 F3000 ;Wipe out
G1 Z10 ;Raise Z more
G90 ;Absolute positionning

G1 X0 Y235 ;Present print
M106 S0 ;Turn-off fan
M104 S0 ;Turn-off hotend
M140 S0 ;Turn-off bed

M84 X Y E ;Disable all steppers but Z

M82 ;absolute extrusion mode
M104 S0
;End of Gcode
;SETTING_3 {"extruder_quality": ["[general]\\nversion = 4\\nname = Standard #2\\
;SETTING_3 ndefinition = creality_ender3pro\\n\\n[metadata]\\nsetting_version =
;SETTING_3 15\\nintent_category = default\\nposition = 0\\nquality_type = standa
;SETTING_3 rd\\ntype = quality_changes\\n\\n[values]\\nbottom_layers = 0\\ninfil
;SETTING_3 l_pattern = gyroid\\ninfill_sparse_density = 3\\nmaterial_print_tempe
;SETTING_3 rature = 210\\nskirt_gap = 8.0\\nskirt_line_count = 2\\nspeed_infill
;SETTING_3 = 40.0\\nspeed_print = 60.0\\nspeed_topbottom = 60.0\\nspeed_travel =
;SETTING_3  180.0\\nspeed_wall_0 = 60.0\\nspeed_wall_x = 60.0\\ntop_layers = 0\\
;SETTING_3 nwall_line_count = 0\\n\\n"], "global_quality": "[general]\\nversion
;SETTING_3 = 4\\nname = Standard #2\\ndefinition = creality_base\\n\\n[metadata]
;SETTING_3 \\nsetting_version = 15\\nquality_type = standard\\ntype = quality_ch
;SETTING_3 anges\\n\\n[values]\\n\\n"}
;ggggggggggggggggggg